packages/icons/web/v2/upgrade_16.svg

<svg width="16" height="16" viewBox="0 0 16 16" fill="none" xmlns="http://www.w3.org/2000/svg">
<g clip-path="url(#clip0_18355_17249)">
<path fill-rule="evenodd" clip-rule="evenodd" d="M8 16C12.4183 16 16 12.4183 16 8C16 3.58172 12.4183 0 8 0C3.58172 0 0 3.58172 0 8C0 12.4183 3.58172 16 8 16ZM11.7071 6.29289L8.70711 3.29289C8.31658 2.90237 7.68342 2.90237 7.29289 3.29289L4.29289 6.29289C3.90237 6.68342 3.90237 7.31658 4.29289 7.70711C4.68342 8.09763 5.31658 8.09763 5.70711 7.70711L8 5.41421L10.2929 7.70711C10.6834 8.09763 11.3166 8.09763 11.7071 7.70711C12.0976 7.31658 12.0976 6.68342 11.7071 6.29289ZM11.7071 10.2929L8.70711 7.29289C8.31658 6.90237 7.68342 6.90237 7.29289 7.29289L4.29289 10.2929C3.90237 10.6834 3.90237 11.3166 4.29289 11.7071C4.68342 12.0976 5.31658 12.0976 5.70711 11.7071L7 10.4142V12C7 12.5523 7.44772 13 8 13C8.55229 13 9 12.5523 9 12V10.4142L10.2929 11.7071C10.6834 12.0976 11.3166 12.0976 11.7071 11.7071C12.0976 11.3166 12.0976 10.6834 11.7071 10.2929Z" fill="currentColor"/>
</g>
<defs>
<clipPath id="clip0_18355_17249">
<rect width="16" height="16" fill="white"/>
</clipPath>
</defs>
</svg>

<svg xmlns="http://www.w3.org/2000/svg" width="16" height="16" fill="none" viewBox="0 0 16 16">
    <path fill="currentColor" fill-rule="evenodd" d="M8 16A8 8 0 1 0 8 0a8 8 0 0 0 0 16m3.707-9.707-3-3a1 1 0 0 0-1.414 0l-3 3a1 1 0 0 0 1.414 1.414L8 5.414l2.293 2.293a1 1 0 1 0 1.414-1.414m0 4-3-3a1 1 0 0 0-1.414 0l-3 3a1 1 0 1 0 1.414 1.414L7 10.414V12a1 1 0 1 0 2 0v-1.586l1.293 1.293a1 1 0 0 0 1.414-1.414" clip-rule="evenodd"/>
</svg>
